X:1
T:Mill-Town Maid -- Reel
R:reel
B:Ryan's Mammoth Collection
Z:Contributed by Ray Davies, ray:davies99.freeserve.co.uk
M:C|
L:1/8
K:Amix
vdc"^Segno"|]BE~E2 Bdcd|BE~E2 dAFA|BE~E2 Bcde|fdec dAFA|\
BE~E2 Bdcd|BE~E2 dAFA|BE~E2 Bcde|fdec dAFA:|\
|:Beec d2dc|Beec dAFA|Beec dfag|fedc dAFA|\
Beec d2dc|Beec defg|afba gfeg|((3fga) ef dfec"^Segno":|
